assets/svg/after-sale.svg

<?xml version="1.0" encoding="UTF-8"?>
<svg width="1000px" height="1000px" viewBox="0 0 1000 1000" version="1.1" xmlns="http://www.w3.org/2000/svg" xmlns:xlink="http://www.w3.org/1999/xlink">
    <!-- Generator: sketchtool 52.4 (67378) - http://www.bohemiancoding.com/sketch -->
    <title>after-sale</title>
    <desc>Created with sketchtool.</desc>
    <g id="新版图标" stroke="none" stroke-width="1" fill="none" fill-rule="evenodd">
        <g id="after-sale" fill="#333333" fill-rule="nonzero">
            <g id="直角-消息类型－提现消息">
                <path d="M869.560927,682.975194 C836.00416,752.902752 781.745013,813.796521 709.503529,855.505161 C518.720314,965.653902 274.766762,900.286745 164.618021,709.503529 C54.4692802,518.720314 119.836437,274.766762 310.619653,164.618021 C501.402869,54.4692802 745.35642,119.836437 855.505161,310.619653 L807.392639,338.397431 C712.585141,174.186028 502.608834,117.923046 338.397431,212.730544 C174.186028,307.538041 117.923046,517.514348 212.730544,681.725752 C307.538041,845.937155 517.514348,902.200137 681.725752,807.392639 C743.149731,771.929488 790.903943,719.535131 820.459866,656.867698 L761.836663,625.697188 L899.268833,572.930052 L932.373989,716.373493 L869.56092,682.975191 Z M589.812681,430.607857 L680.607857,430.607857 L680.607857,486.163413 L541.718969,486.163413 L541.718969,541.718969 L680.607857,541.718969 L680.607857,597.274524 L541.718969,597.274524 L541.718969,736.163413 L486.163413,736.163413 L486.163413,597.274524 L347.274524,597.274524 L347.274524,541.718969 L486.163413,541.718969 L486.163413,486.163413 L347.274524,486.163413 L347.274524,430.607857 L432.411069,430.607857 L361.163413,291.718969 L429.544434,291.718969 L497.985554,430.607857 L524.238196,430.607857 L592.679316,291.718969 L661.060337,291.718969 L589.812681,430.607857 Z" id="直角-消息类型－提现消息-线"></path>
            </g>
        </g>
    </g>
</svg>

<svg width="1000" height="1000" xmlns="http://www.w3.org/2000/svg"><path d="M869.56 682.975c-33.556 69.928-87.815 130.822-160.056 172.53-190.784 110.149-434.737 44.782-544.886-146.001C54.469 518.72 119.836 274.767 310.62 164.618 501.403 54.469 745.356 119.836 855.505 310.62l-48.112 27.777c-94.808-164.211-304.784-220.474-468.996-125.666-164.211 94.807-220.474 304.783-125.666 468.995C307.538 845.937 517.514 902.2 681.726 807.393c61.424-35.464 109.178-87.858 138.734-150.525l-58.623-31.17 137.432-52.768 33.105 143.443-62.813-33.398zM589.814 430.608h90.795v55.555H541.719v55.556h138.889v55.556H541.719v138.888h-55.556V597.275H347.275v-55.556h138.888v-55.556H347.275v-55.555h85.136l-71.248-138.889h68.381l68.442 138.889h26.252l68.441-138.889h68.381l-71.247 138.889z" fill="#333" fill-rule="nonzero"/></svg>
